images/init4.svg

<svg width="40" height="40" viewBox="0 0 40 40" fill="none" xmlns="http://www.w3.org/2000/svg">
<circle cx="20" cy="20" r="20" fill="#F0F5FF"/>
<path d="M13.0409 16.1209C14.7204 16.1209 16.0818 14.7594 16.0818 13.08C16.0818 11.4005 14.7204 10.0391 13.0409 10.0391C11.3615 10.0391 10 11.4005 10 13.08C10 14.7594 11.3615 16.1209 13.0409 16.1209Z" fill="#BDD0EA"/>
<path d="M26.9198 29.9998C28.5993 29.9998 29.9607 28.6383 29.9607 26.9589C29.9607 25.2794 28.5993 23.918 26.9198 23.918C25.2404 23.918 23.8789 25.2794 23.8789 26.9589C23.8789 28.6383 25.2404 29.9998 26.9198 29.9998Z" fill="#BDD0EA"/>
<path d="M26.1208 14.2418V23.4776C26.616 23.3646 27.1306 23.3568 27.6296 23.4581V14.2418C27.6491 11.9183 25.7895 10.0196 23.4659 10.0002C21.1423 9.98066 19.2476 11.8403 19.2281 14.16V25.8012C19.2281 27.2866 18.0234 28.4912 16.5342 28.4951H16.4952C15.0098 28.4912 13.8051 27.2866 13.8051 25.8012V16.5693C13.31 16.6785 12.7954 16.6785 12.2964 16.5732V25.7973C12.3003 28.117 14.1755 29.9961 16.4952 30H16.5342C18.8538 29.9961 20.733 28.117 20.7369 25.7973V14.2418C20.7174 12.7565 21.9103 11.5362 23.3957 11.5167C24.8811 11.4972 26.1013 12.6902 26.1208 14.1756V14.2418Z" fill="#BDD0EA"/>
</svg>

<svg width="40" height="40" fill="none" xmlns="http://www.w3.org/2000/svg"><circle cx="20" cy="20" r="20" fill="#F0F5FF"/><path d="M13.04 16.12a3.04 3.04 0 100-6.08 3.04 3.04 0 000 6.08zM26.92 30a3.04 3.04 0 100-6.082 3.04 3.04 0 000 6.082z" fill="#BDD0EA"/><path d="M26.12 14.242v9.236a3.581 3.581 0 011.51-.02v-9.216A4.2 4.2 0 0023.466 10a4.196 4.196 0 00-4.238 4.16v11.641a2.697 2.697 0 01-2.694 2.694h-.039a2.696 2.696 0 01-2.69-2.694V16.57c-.495.11-1.01.11-1.509.004v9.224a4.206 4.206 0 004.2 4.203h.038a4.21 4.21 0 004.203-4.203V14.242a2.694 2.694 0 012.659-2.725 2.694 2.694 0 012.725 2.659v.066z" fill="#BDD0EA"/></svg>
